X:82
T:Traver's Jig
R:jig
H:Also played in A, #340
Z:id:hn-jig-82
M:6/8
K:G
dBG ~B3|dBG ~A3|GBd ~g3|edB Age|dBG ~B3|dBG ~A3|GBd ~g3|1 edB G2e:|2 edB G2A||
Bdd edd|gdd edd|Bde ~g3|edB ~A3|Bdd edd|gdd edd|Bde ~g3|edB G2A|
Bdd edd|gdd edd|Bde ~g3|edB Age|dBG ~B3|dBG ~A3|GBd ~g3|edB G2e||

